X: 2
T: Tavistock Goosey Fair
S: From the singing of Gerry Bates at the Grapes Folk Club, c. 1978
S: "pete"  tradtunes 2008-7-15
M: 6/8
L: 1/8
K: G
D \
| G2d B2G | E2A ^F2D | E2G G2^F | G3-  G2D | G2d B2G | E2A ^F2D | E2G G2^F | G3- G2d |
| d2B c2A | BG2- G2d | d2B c2A  | B3-  B2d | d2B c2A | B2G  A2B | AAA B2A  | d3- d2d |
| e2c A2e | dB2- B2B | c2B A2G  | E^FE D2D | G2d B2G | E2A ^F2D | E2G G2^F | G3- G2 |]
